usr/share/icons/biglinux-icons-material-dark/22/actions/user-group-properties.svg

<svg xmlns="http://www.w3.org/2000/svg" viewBox="0 0 22 22">
<defs id="defs3051">
<style id="current-color-scheme" type="text/css">
.ColorScheme-Text{color:#dedede}
</style>
</defs>
<path d="M10 3v1h9V3zM8 6C6.338 6 5 7.338 5 9s1.338 3 3 3 3-1.338 3-3-1.338-3-3-3m4 2v1h7V8zm-4 5c-2.77 0-5 2.23-5 5v1h10v-1c0-2.77-2.23-5-5-5m5 0v1h6v-1zm-5 1c2.216 0 4 1.784 4 4H4c0-2.216 1.784-4 4-4" class="ColorScheme-Text" style="fill:currentColor;fill-opacity:1;stroke:none"/>
</svg>

<svg xmlns="http://www.w3.org/2000/svg" viewBox="0 0 22 22">
  <defs id="defs3051">
    <style type="text/css" id="current-color-scheme">
      .ColorScheme-Text {
        color:#dedede;
      }
      </style>
  </defs>
 <path 
    style="fill:currentColor;fill-opacity:1;stroke:none" 
    d="M 10 3 L 10 4 L 19 4 L 19 3 L 10 3 z M 8 6 C 6.338 6 5 7.338 5 9 C 5 10.662 6.338 12 8 12 C 9.662 12 11 10.662 11 9 C 11 7.338 9.662 6 8 6 z M 12 8 L 12 9 L 19 9 L 19 8 L 12 8 z M 8 13 C 5.229983 13 3 15.229983 3 18 L 3 19 L 13 19 L 13 18 C 13 15.229983 10.770017 13 8 13 z M 13 13 L 13 14 L 19 14 L 19 13 L 13 13 z M 8 14 C 10.216017 14 12 15.783983 12 18 L 4 18 C 4 15.783983 5.783983 14 8 14 z "
	class="ColorScheme-Text"
    />  
</svg>
